themes/nyu-lib/images/NYU-Logo.svg

<?xml version="1.0" encoding="UTF-8"?>
<svg height="864" version="1.1" width="1536" xmlns="http://www.w3.org/2000/svg"><path d="M0 0 L597 0 l0 591 l-597 0 L0 0 Z" fill="#660090" transform="translate(470 5)"/>
<path d="M0 0 L43 0 c9.07 11.34 9.07 11.34 12.94 16.38 l1.27 1.65 c3.54 4.62 7.02 9.27 10.51 13.93 c2.45 3.26 4.93 6.5 7.41 9.73 l1.26 1.64 c1.92 2.49 3.84 4.96 5.8 7.42 l1.94 2.44 l1.69 2.1 C87 57 87 57 87 59 l2 0 c1.56 1.91 1.56 1.91 3.44 4.63 c3.72 5.25 7.61 10.31 11.62 15.34 C113 90.23 113 90.23 113 93 l2 0 c1.51 1.68 1.51 1.68 3.13 3.88 l1.63 2.18 C121 101 121 101 121 103 l2 0 c1.44 1.83 1.44 1.83 3 4.25 l1.56 2.39 c1.27 2.08 2.39 4.16 3.44 6.36 l2 0 l2 3 l1 -119 l45 0 l0 201 l-40 0 c-6 -8 -6 -8 -6 -10 l-2 0 c-4 -5.41 -4 -5.41 -4 -8 l-2 0 c-1.51 -1.68 -1.51 -1.68 -3.13 -3.88 l-1.63 -2.18 C121 175 121 175 121 173 l-2 0 c-1.44 -1.83 -1.44 -1.83 -3 -4.25 l-1.56 -2.39 C113.17 164.28 112.05 162.2 111 160 l-2 0 c-1.75 -2.22 -3.39 -4.43 -5 -6.75 l-1.37 -1.92 C100.51 148.31 98.5 145.38 97 142 l-2 0 c-1.54 -1.99 -2.96 -3.98 -4.38 -6.06 C86.91 130.59 83.04 125.43 78.94 120.38 c-3.79 -4.69 -7.55 -9.39 -11.19 -14.19 l-2.2 -2.89 C64 101 64 101 64 99 l-2 0 C60.67 97.56 60.67 97.56 59.18 95.57 L57.56 93.41 L55.88 91.13 L54.17 88.86 C50 83.26 50 83.26 50 81 l-2 0 L47 77 l-2 0 l0 124 l-45 0 L0 0 Z" fill="#65008F" transform="translate(469 653)"/>
<path d="M0 0 L46 0 l0.03 11.45 C46.06 23.97 46.12 36.49 46.18 49 c0.04 7.59 0.07 15.17 0.09 22.76 c0.01 6.62 0.04 13.23 0.08 19.85 c0.02 3.5 0.04 7 0.04 10.5 c-0 3.92 0.03 7.84 0.06 11.76 l-0.02 3.46 c0.14 11.05 2.63 20.93 9.29 29.87 C57 149 57 149 58 152 l3 1 l0 2 l2.06 0.81 c2.05 0.83 4.07 1.73 6.06 2.69 c12.9 5.51 27.57 4.53 40.42 -0.5 c8.98 -4.48 14.42 -11.95 18.45 -20.94 c2.78 -8.47 3.31 -16.71 3.33 -25.58 l0.03 -3.67 l0.06 -9.87 l0.07 -10.35 l0.12 -19.55 l0.14 -22.27 C131.83 30.52 131.92 15.26 132 0 l45 0 c0.04 16.6 0.08 33.19 0.1 49.79 l0.05 23.12 l0.04 20.17 l0.02 10.66 c0.02 3.98 0.02 7.97 0.02 11.95 l0.02 3.51 c-0.03 10.71 -1.4 21.16 -4.5 31.43 l-0.66 2.18 c-5.82 18.5 -19.17 33.4 -36.25 42.41 c-14.69 7.19 -31.38 9.18 -47.53 9.1 l-3.7 -0.02 C60.66 203.98 39.8 198.44 22.13 181.56 C4.74 163.19 -0.38 139.31 -0.23 114.66 l-0 -3.79 l0.02 -10.14 l0.02 -10.65 l0.04 -20.1 L-0.1 47.07 C-0.08 31.38 -0.04 15.69 0 0 Z" fill="#65008F" transform="translate(890 653)"/>
<path d="M0 0 C7.36 -0.41 14.72 -0.69 22.1 -0.88 c2.5 -0.08 5.01 -0.19 7.51 -0.33 C49.81 -2.3 49.81 -2.3 55.08 1.5 c3.33 3.68 5.31 7.8 7.07 12.41 c1.38 3.41 3.29 6.5 5.16 9.66 l1.95 3.46 c1.67 2.86 3.47 5.48 5.46 8.11 c1.52 2.21 2.75 4.5 4.02 6.87 c3.15 5.84 6.49 11.55 9.89 17.25 c3.5 5.89 7 11.78 10.38 17.75 l2 0 c1.51 -2.27 2.89 -4.52 4.25 -6.88 l1.23 -2.09 L110 62 c3.32 -5.64 6.75 -11.19 10.31 -16.69 c3.5 -5.4 6.87 -10.87 10.16 -16.4 c3.56 -5.97 7.18 -11.91 10.81 -17.83 L142.62 8.9 l1.18 -1.92 c1.29 -2.04 1.29 -2.04 2.46 -4.57 C148 0 148 0 150.34 -0.6 l2.78 0.03 l3.15 0 l3.4 0.08 l3.48 0.02 c3.68 0.03 7.36 0.09 11.03 0.16 l7.47 0.07 C187.78 -0.19 193.89 -0.11 200 0 c-2.55 11.01 -11.34 21.04 -17.67 30.17 C178.98 35.01 175.82 39.83 173 45 c-1.63 2.94 -1.63 2.94 -3 5 l-2 0 l-0.73 2.59 c-1.38 3.71 -3.27 6.69 -5.52 9.91 c-4.5 6.59 -8.84 13.27 -13.13 20 l-1.8 2.82 C143.76 90.15 140.79 95 138 100 l-2 0 l-0.72 2.12 c-1.24 2.78 -2.77 4.92 -4.61 7.33 c-6.79 9.21 -6.94 17.53 -6.78 28.64 l-0.03 5.39 c-0.02 4.68 0 9.36 0.04 14.04 c0.04 5.64 0.01 11.28 -0.01 16.92 c-0.02 8.53 0.04 17.05 0.09 25.57 l-46 0 l0.03 -16.71 l-0.04 -10.53 C77.96 167.2 77.93 161.64 77.96 156.08 c0.02 -4.49 0 -8.97 -0.04 -13.46 c-0.01 -1.71 -0.01 -3.41 0.01 -5.12 C78.01 127.06 77.19 120.1 70 112 c-1.13 -1.69 -2.24 -3.4 -3.31 -5.13 l-1.75 -2.77 L59.4 95.24 C50.28 80.48 50.28 80.48 40.56 66.13 C36.11 59.86 32.1 53.3 28.07 46.74 C27.13 45.2 26.17 43.67 25.2 42.15 C24 40 24 40 24 38 l-2 0 C20.52 35.76 20.52 35.76 18.81 32.69 C15.82 27.38 12.64 22.26 9.29 17.18 C8 15 8 15 8 13 L6 13 L6 10 L4 10 C0 3.38 0 3.38 0 0 Z" fill="#66008F" transform="translate(672 654)"/>
<path d="M0 0 C3.69 3.17 5.3 6.5 6.88 11 l0.76 2.1 C13.61 29.96 18.32 46.83 20 64.69 l0.38 3.89 C19.88 73.08 18.44 74.13 15 77 l-3.05 2.87 l-3.26 3.01 L6.95 84.48 c-3.02 2.78 -6.07 5.5 -9.2 8.14 c-21.28 18.56 -35.93 45.24 -37.97 73.45 c-0.41 14.29 2.6 27.64 8.02 40.77 C-31 210 -31 210 -31 213 c-18.87 -6.59 -36.23 -25.86 -45.61 -42.94 c-1.28 -2.65 -2.38 -5.3 -3.39 -8.06 l-0.96 -2.56 C-86.9 141.13 -81.45 121.58 -73 105 c8.31 -15.01 18.69 -28.74 30.42 -41.22 C-38.49 59.37 -34.75 54.71 -31 50 l2.65 -3.27 C-16.79 32.37 -6.63 17.31 0 0 Z" fill="#FCFAFC" transform="translate(780 98)"/>
<path d="M0 0 L2 0 C0.82 34.58 -3.43 71.72 -27 99 l-1.79 2.23 c-17.05 20.46 -43.01 28.83 -68.65 31.56 c-6.19 0.52 -12.36 0.45 -18.56 0.21 c0.41 -20.01 9.89 -39.18 23 -54 l1.44 -1.84 c8.99 -11.33 21.83 -19.09 34.81 -25.03 C-44 46.28 -32.46 39.42 -22 30 l2.58 -2.3 C-10.98 19.77 -5.02 10.39 0 0 Z" fill="#FCFAFD" transform="translate(889 182)"/>
<path d="M0 0 L2 0 c5.48 10.7 9.24 21.3 12 33 l0.75 3.07 c1.34 6.52 1.48 13.05 1.56 19.68 l0.05 2.69 c-0.01 7.1 -1.04 12.61 -5.5 18.26 C7.19 79.65 3.33 81.71 -0.88 83.81 l-5.12 2.64 L-11 89 c-13.44 6.85 -24.96 14.63 -36 25 l-1.83 1.6 c-13.81 12.61 -21.37 31.18 -26.13 48.82 c-0.81 2.78 -1.62 5.08 -3.04 7.58 c-9.8 -19.96 -12.04 -42.82 -5.33 -64.12 C-77.67 91.43 -68.06 78.32 -56 66 l2.46 -2.61 c4.4 -4.58 8.97 -8.59 14.04 -12.39 C-21.99 37.85 -9.53 19.56 0 0 Z" fill="#FCFAFC" transform="translate(839 135)"/>
<path d="M0 0 C3 1 3 1 4.2 2.85 l1.14 2.42 L6.62 7.95 l1.32 2.87 l1.35 2.9 C18.94 34.73 18.94 34.73 17 43 c-1.26 2.59 -2.71 4.94 -4.28 7.35 C6.91 59.32 3.54 68.67 1 79 L0.31 81.58 C-4 99.64 0.46 117.75 9.5 133.62 c9 14.29 21.28 24.08 35.1 33.33 l1.4 1.06 l0 1 c-25.09 1.5 -48.95 -5.58 -68.2 -21.86 C-33.62 136.62 -39.33 121.86 -40.19 106.61 c-0.35 -21.15 7.21 -36.37 17.87 -54.03 C-12.77 36.68 -2.24 18.68 0 0 Z" fill="#FCF9FC" transform="translate(687 145)"/>
<path d="M0 0 L50 0 C49.4 7.23 48.77 14.37 47.84 21.56 l-0.34 2.66 l-1.12 8.66 l-0.8 6.2 L43.44 55.61 l-1.74 13.52 c-2.98 23.11 -5.99 46.21 -9.07 69.31 l-0.39 2.89 l-1.07 8.04 l-0.32 2.35 l-0.58 4.28 c-0.26 1.97 -0.5 3.94 -0.73 5.91 C29 165 29 165 27.31 167 c-3.15 1.36 -5.05 0.92 -8.31 0 c-2.97 -2.97 -2.73 -6.47 -3.15 -10.48 l-0.29 -2.64 L14.63 145.25 l-0.66 -6.04 C13.29 133.14 12.65 127.07 12 121 l-0.28 -2.61 L9.52 97.46 C8.32 85.94 7.06 74.43 5.76 62.92 C4.19 48.85 2.62 34.77 1.19 20.69 L0.81 17.08 L0.48 13.76 L0.2 10.95 C-0.05 7.31 0 3.65 0 0 Z" fill="#FCFAFC" transform="translate(731 363)"/>
<path d="M0 0 L86 0 l0 26 L0 26 L0 0 Z" fill="#F8F4FA" transform="translate(712 326)"/>
<path d="M0 0 L2 1 L-22 25 l-2 -1 C-16.33 15.6 -8.68 7.38 0 0 Z" fill="#731A9A" transform="translate(788 180)"/>
</svg>

<?xml version="1.0" encoding="UTF-8" standalone="no"?>
<!DOCTYPE svg PUBLIC "-//W3C//DTD SVG 1.1//EN" "http://www.w3.org/Graphics/SVG/1.1/DTD/svg11.dtd">
<svg width="100%" height="100%" viewBox="0 0 599 853" version="1.1" xmlns="http://www.w3.org/2000/svg" xmlns:xlink="http://www.w3.org/1999/xlink" xml:space="preserve" xmlns:serif="http://www.serif.com/" style="fill-rule:evenodd;clip-rule:evenodd;stroke-linejoin:round;stroke-miterlimit:2;">
    <g transform="matrix(1,0,0,1,1,0)">
        <rect x="0" y="0" width="597" height="591" style="fill:rgb(102,0,144);fill-rule:nonzero;"/>
    </g>
    <g transform="matrix(1,0,0,1,0,648)">
        <path d="M0,0L43,0C52.07,11.34 52.07,11.34 55.94,16.38L57.21,18.03C60.75,22.65 64.23,27.3 67.72,31.96C70.17,35.22 72.65,38.46 75.13,41.69L76.39,43.33C78.31,45.82 80.23,48.29 82.19,50.75L84.13,53.19L85.82,55.29C87,57 87,57 87,59L89,59C90.56,60.91 90.56,60.91 92.44,63.63C96.16,68.88 100.05,73.94 104.06,78.97C113,90.23 113,90.23 113,93L115,93C116.51,94.68 116.51,94.68 118.13,96.88L119.76,99.06C121,101 121,101 121,103L123,103C124.44,104.83 124.44,104.83 126,107.25L127.56,109.64C128.83,111.72 129.95,113.8 131,116L133,116L135,119L136,0L181,0L181,201L141,201C135,193 135,193 135,191L133,191C129,185.59 129,185.59 129,183L127,183C125.49,181.32 125.49,181.32 123.87,179.12L122.24,176.94C121,175 121,175 121,173L119,173C117.56,171.17 117.56,171.17 116,168.75L114.44,166.36C113.17,164.28 112.05,162.2 111,160L109,160C107.25,157.78 105.61,155.57 104,153.25L102.63,151.33C100.51,148.31 98.5,145.38 97,142L95,142C93.46,140.01 92.04,138.02 90.62,135.94C86.91,130.59 83.04,125.43 78.94,120.38C75.15,115.69 71.39,110.99 67.75,106.19L65.55,103.3C64,101 64,101 64,99L62,99C60.67,97.56 60.67,97.56 59.18,95.57L57.56,93.41L55.88,91.13L54.17,88.86C50,83.26 50,83.26 50,81L48,81L47,77L45,77L45,201L0,201L0,0Z" style="fill:rgb(101,0,143);fill-rule:nonzero;"/>
    </g>
    <g transform="matrix(1,0,0,1,421,648)">
        <path d="M0,0L46,0L46.03,11.45C46.06,23.97 46.12,36.49 46.18,49C46.22,56.59 46.25,64.17 46.27,71.76C46.28,78.38 46.31,84.99 46.35,91.61C46.37,95.11 46.39,98.61 46.39,102.11C46.39,106.03 46.42,109.95 46.45,113.87L46.43,117.33C46.57,128.38 49.06,138.26 55.72,147.2C57,149 57,149 58,152L61,153L61,155L63.06,155.81C65.11,156.64 67.13,157.54 69.12,158.5C82.02,164.01 96.69,163.03 109.54,158C118.52,153.52 123.96,146.05 127.99,137.06C130.77,128.59 131.3,120.35 131.32,111.48L131.35,107.81L131.41,97.94L131.48,87.59L131.6,68.04L131.74,45.77C131.83,30.52 131.92,15.26 132,0L177,0C177.04,16.6 177.08,33.19 177.1,49.79L177.15,72.91L177.19,93.08L177.21,103.74C177.23,107.72 177.23,111.71 177.23,115.69L177.25,119.2C177.22,129.91 175.85,140.36 172.75,150.63L172.09,152.81C166.27,171.31 152.92,186.21 135.84,195.22C121.15,202.41 104.46,204.4 88.31,204.32L84.61,204.3C60.66,203.98 39.8,198.44 22.13,181.56C4.74,163.19 -0.38,139.31 -0.23,114.66L-0.23,110.87L-0.21,100.73L-0.19,90.08L-0.15,69.98L-0.1,47.07C-0.08,31.38 -0.04,15.69 0,0Z" style="fill:rgb(101,0,143);fill-rule:nonzero;"/>
    </g>
    <g transform="matrix(1,0,0,1,203,649)">
        <path d="M0,0C7.36,-0.41 14.72,-0.69 22.1,-0.88C24.6,-0.96 27.11,-1.07 29.61,-1.21C49.81,-2.3 49.81,-2.3 55.08,1.5C58.41,5.18 60.39,9.3 62.15,13.91C63.53,17.32 65.44,20.41 67.31,23.57L69.26,27.03C70.93,29.89 72.73,32.51 74.72,35.14C76.24,37.35 77.47,39.64 78.74,42.01C81.89,47.85 85.23,53.56 88.63,59.26C92.13,65.15 95.63,71.04 99.01,77.01L101.01,77.01C102.52,74.74 103.9,72.49 105.26,70.13L106.49,68.04L110,62C113.32,56.36 116.75,50.81 120.31,45.31C123.81,39.91 127.18,34.44 130.47,28.91C134.03,22.94 137.65,17 141.28,11.08L142.62,8.9L143.8,6.98C145.09,4.94 145.09,4.94 146.26,2.41C148,0 148,0 150.34,-0.6L153.12,-0.57L156.27,-0.57L159.67,-0.49L163.15,-0.47C166.83,-0.44 170.51,-0.38 174.18,-0.31L181.65,-0.24C187.78,-0.19 193.89,-0.11 200,0C197.45,11.01 188.66,21.04 182.33,30.17C178.98,35.01 175.82,39.83 173,45C171.37,47.94 171.37,47.94 170,50L168,50L167.27,52.59C165.89,56.3 164,59.28 161.75,62.5C157.25,69.09 152.91,75.77 148.62,82.5L146.82,85.32C143.76,90.15 140.79,95 138,100L136,100L135.28,102.12C134.04,104.9 132.51,107.04 130.67,109.45C123.88,118.66 123.73,126.98 123.89,138.09L123.86,143.48C123.84,148.16 123.86,152.84 123.9,157.52C123.94,163.16 123.91,168.8 123.89,174.44C123.87,182.97 123.93,191.49 123.98,200.01L77.98,200.01L78.01,183.3L77.97,172.77C77.96,167.2 77.93,161.64 77.96,156.08C77.98,151.59 77.96,147.11 77.92,142.62C77.91,140.91 77.91,139.21 77.93,137.5C78.01,127.06 77.19,120.1 70,112C68.87,110.31 67.76,108.6 66.69,106.87L64.94,104.1L59.4,95.24C50.28,80.48 50.28,80.48 40.56,66.13C36.11,59.86 32.1,53.3 28.07,46.74C27.13,45.2 26.17,43.67 25.2,42.15C24,40 24,40 24,38L22,38C20.52,35.76 20.52,35.76 18.81,32.69C15.82,27.38 12.64,22.26 9.29,17.18C8,15 8,15 8,13L6,13L6,10L4,10C0,3.38 0,3.38 0,0Z" style="fill:rgb(102,0,143);fill-rule:nonzero;"/>
    </g>
    <g transform="matrix(1,0,0,1,311,93)">
        <path d="M0,0C3.69,3.17 5.3,6.5 6.88,11L7.64,13.1C13.61,29.96 18.32,46.83 20,64.69L20.38,68.58C19.88,73.08 18.44,74.13 15,77L11.95,79.87L8.69,82.88L6.95,84.48C3.93,87.26 0.88,89.98 -2.25,92.62C-23.53,111.18 -38.18,137.86 -40.22,166.07C-40.63,180.36 -37.62,193.71 -32.2,206.84C-31,210 -31,210 -31,213C-49.87,206.41 -67.23,187.14 -76.61,170.06C-77.89,167.41 -78.99,164.76 -80,162L-80.96,159.44C-86.9,141.13 -81.45,121.58 -73,105C-64.69,89.99 -54.31,76.26 -42.58,63.78C-38.49,59.37 -34.75,54.71 -31,50L-28.35,46.73C-16.79,32.37 -6.63,17.31 0,0Z" style="fill:rgb(252,250,252);fill-rule:nonzero;"/>
    </g>
    <g transform="matrix(1,0,0,1,420,177)">
        <path d="M0,0L2,0C0.82,34.58 -3.43,71.72 -27,99L-28.79,101.23C-45.84,121.69 -71.8,130.06 -97.44,132.79C-103.63,133.31 -109.8,133.24 -116,133C-115.59,112.99 -106.11,93.82 -93,79L-91.56,77.16C-82.57,65.83 -69.73,58.07 -56.75,52.13C-44,46.28 -32.46,39.42 -22,30L-19.42,27.7C-10.98,19.77 -5.02,10.39 0,0Z" style="fill:rgb(252,250,253);fill-rule:nonzero;"/>
    </g>
    <g transform="matrix(1,0,0,1,370,130)">
        <path d="M0,0L2,0C7.48,10.7 11.24,21.3 14,33L14.75,36.07C16.09,42.59 16.23,49.12 16.31,55.75L16.36,58.44C16.35,65.54 15.32,71.05 10.86,76.7C7.19,79.65 3.33,81.71 -0.88,83.81L-6,86.45L-11,89C-24.44,95.85 -35.96,103.63 -47,114L-48.83,115.6C-62.64,128.21 -70.2,146.78 -74.96,164.42C-75.77,167.2 -76.58,169.5 -78,172C-87.8,152.04 -90.04,129.18 -83.33,107.88C-77.67,91.43 -68.06,78.32 -56,66L-53.54,63.39C-49.14,58.81 -44.57,54.8 -39.5,51C-21.99,37.85 -9.53,19.56 0,0Z" style="fill:rgb(252,250,252);fill-rule:nonzero;"/>
    </g>
    <g transform="matrix(1,0,0,1,218,140)">
        <path d="M0,0C3,1 3,1 4.2,2.85L5.34,5.27L6.62,7.95L7.94,10.82L9.29,13.72C18.94,34.73 18.94,34.73 17,43C15.74,45.59 14.29,47.94 12.72,50.35C6.91,59.32 3.54,68.67 1,79L0.31,81.58C-4,99.64 0.46,117.75 9.5,133.62C18.5,147.91 30.78,157.7 44.6,166.95L46,168.01L46,169.01C20.91,170.51 -2.95,163.43 -22.2,147.15C-33.62,136.62 -39.33,121.86 -40.19,106.61C-40.54,85.46 -32.98,70.24 -22.32,52.58C-12.77,36.68 -2.24,18.68 0,0Z" style="fill:rgb(252,249,252);fill-rule:nonzero;"/>
    </g>
    <g transform="matrix(1,0,0,1,262,358)">
        <path d="M0,0L50,0C49.4,7.23 48.77,14.37 47.84,21.56L47.5,24.22L46.38,32.88L45.58,39.08L43.44,55.61L41.7,69.13C38.72,92.24 35.71,115.34 32.63,138.44L32.24,141.33L31.17,149.37L30.85,151.72L30.27,156C30.01,157.97 29.77,159.94 29.54,161.91C29,165 29,165 27.31,167C24.16,168.36 22.26,167.92 19,167C16.03,164.03 16.27,160.53 15.85,156.52L15.56,153.88L14.63,145.25L13.97,139.21C13.29,133.14 12.65,127.07 12,121L11.72,118.39L9.52,97.46C8.32,85.94 7.06,74.43 5.76,62.92C4.19,48.85 2.62,34.77 1.19,20.69L0.81,17.08L0.48,13.76L0.2,10.95C-0.05,7.31 0,3.65 0,0Z" style="fill:rgb(252,250,252);fill-rule:nonzero;"/>
    </g>
    <g transform="matrix(1,0,0,1,243,321)">
        <rect x="0" y="0" width="86" height="26" style="fill:rgb(248,244,250);fill-rule:nonzero;"/>
    </g>
    <g transform="matrix(1,0,0,1,319,175)">
        <path d="M0,0L2,1L-22,25L-24,24C-16.33,15.6 -8.68,7.38 0,0Z" style="fill:rgb(115,26,154);fill-rule:nonzero;"/>
    </g>
</svg>
